images/phone-call 1.svg

<svg fill="none" height="160" viewBox="0 0 160 160" width="160" xmlns="http://www.w3.org/2000/svg" xmlns:xlink="http://www.w3.org/1999/xlink"><clipPath id="a"><path d="m0 0h160v160h-160z"/></clipPath><g clip-path="url(#a)"><path d="m95.5576 55.8056c8.5084 2.2802 13.5764 11.0581 11.2964 19.5673-.649 2.4227-.315 4.9529.939 7.1246 1.254 2.1718 3.278 3.7254 5.7 4.3748.812.2171 1.626.3209 2.428.3209 4.146 0 7.949-2.7705 9.072-6.9602 4.96-18.5109-6.064-37.6054-24.575-42.5654-5.0022-1.34-10.1594 1.638-11.5 6.639-1.3396 5.0003 1.639 10.1588 6.6396 11.499zm-.6024-9.8813c.2168-.8103.7365-1.4871 1.463-1.9065.4837-.2793 1.0206-.4218 1.5643-.4218.2728 0 .5475.0359.8181.1084 15.1824 4.0682 24.2244 19.7292 20.1564 34.9115-.448 1.6721-2.174 2.6676-3.845 2.2198-.81-.2171-1.488-.7365-1.907-1.4627s-.531-1.5724-.314-2.3824c3.172-11.8377-3.878-24.0489-15.7156-27.2212-1.6721-.4484-2.6683-2.1733-2.2202-3.8451z" fill="#fece03"/><path d="m106.983 13.1664c-4.999-1.3396-10.1592 1.6384-11.4994 6.6393-.649 2.4224-.3159 4.9529.9381 7.1246 1.2539 2.1721 3.2788 3.7255 5.7013 4.3745 22.019 5.9003 35.133 28.6143 29.233 50.6334-.649 2.4226-.316 4.9528.938 7.1246 1.254 2.1717 3.278 3.7254 5.701 4.3744.811.2172 1.625.3209 2.428.3209 4.145 0 7.948-2.7701 9.071-6.9599 8.58-32.021-10.49-65.0519-42.511-73.6318zm36.475 72.0138c-.448 1.6724-2.172 2.6683-3.846 2.2199-.81-.2172-1.486-.7363-1.905-1.4625-.001 0-.001 0-.001-.0003-.419-.7262-.53-1.5724-.314-2.3824 6.792-25.3476-8.304-51.4952-33.652-58.2873-1.672-.4481-2.668-2.173-2.22-3.8448.376-1.4011 1.648-2.3273 3.034-2.3273.268 0 .54.0347.812.1071 28.691 7.6887 45.779 37.2858 38.092 65.9776z" fill="#fece03"/><path d="m117.284 109.017c-4.147-7.183-13.363-9.6536-20.5464-5.506l-12.7237 7.346c-.5987.346-1.2965.438-1.9664.259-.6687-.179-1.2275-.609-1.5734-1.208l-28.644-49.613c-.3459-.5996-.4381-1.2977-.2587-1.9664.179-.6687.6078-1.2275 1.2071-1.5734l12.7233-7.3458c7.1824-4.147 9.6523-13.3643 5.5057-20.5467l-12.3237-21.34532c-4.1466-7.18272-13.3639-9.65195-20.5467-5.50563l-4.3225 2.4958c-24.23395 13.99135-32.56661 45.08965-18.5755 69.32325l10.5275 18.234c.8628 1.4946 2.7736 2.0064 4.2685 1.1437 1.4946-.8628 2.0068-2.774 1.1437-4.2686l-10.5272-18.2339c-10.0398-17.389-6.9678-38.8075 6.124-52.7392l20.456 35.4308c-.7855.9587-1.3668 2.0808-1.6971 3.3139-.6112 2.2811-.2974 4.6635.8834 6.7086l28.644 49.6129c1.1806 2.045 3.087 3.508 5.3685 4.119 1.2327.331 2.4951.389 3.7182.188l20.3354 35.222c-7.0774 1.677-14.5023 1.585-21.7253-.35-11.4809-3.076-21.0769-10.439-27.0197-20.733l-10.4991-18.185c-.8631-1.495-2.7739-2.007-4.2685-1.144s-2.0068 2.774-1.1437 4.269l10.4991 18.185c6.7774 11.739 17.7211 20.136 30.8145 23.645 4.3722 1.171 8.8088 1.751 13.2173 1.751 8.7934 0 17.4724-2.307 25.2914-6.821l4.323-2.496c3.479-2.009 5.968-5.253 7.008-9.133 1.04-3.881.506-7.934-1.503-11.414zm-80.3449-99.09695 4.3226-2.49579c2.0336-1.17431 4.4031-1.48585 6.6711-.87839 2.2684.60778 4.1642 2.0627 5.3385 4.09633l12.3237 21.3454c2.4236 4.1982.9802 9.5857-3.218 12.0096l-10.0172 5.7834-20.872-36.1511c1.6993-1.3499 3.5167-2.5923 5.4513-3.70945zm88.0039 130.01295c-.607 2.268-2.062 4.164-4.096 5.338l-4.322 2.496c-1.924 1.111-3.907 2.069-5.934 2.872l-20.7458-35.932 10.0175-5.783c4.1983-2.424 9.5853-.98 12.0093 3.217l12.194 21.121c1.174 2.033 1.486 4.402.877 6.671z" fill="#374a5c"/><path d="m35.5364 99.5362c-.8249 0-1.628.3344-2.2123.9158-.5812.581-.9125 1.384-.9125 2.209 0 .822.3313 1.628.9125 2.209.5843.582 1.3905.916 2.2123.916.8219 0 1.6281-.334 2.2093-.916.5812-.581.9156-1.387.9156-2.209 0-.825-.3344-1.628-.9156-2.209-.5812-.5817-1.3874-.9158-2.2093-.9158z" fill="#fece03"/></g></svg>

<svg width="160" height="160" viewBox="0 0 160 160" fill="none" xmlns="http://www.w3.org/2000/svg">
<g clip-path="url(#clip0)">
<path d="M95.5576 55.8056C104.066 58.0858 109.134 66.8637 106.854 75.3729C106.205 77.7956 106.539 80.3258 107.793 82.4975C109.047 84.6693 111.071 86.2229 113.493 86.8723C114.305 87.0894 115.119 87.1932 115.921 87.1932C120.067 87.1932 123.87 84.4227 124.993 80.233C129.953 61.7221 118.929 42.6276 100.418 37.6676C95.4158 36.3276 90.2586 39.3056 88.918 44.3066C87.5784 49.3069 90.557 54.4654 95.5576 55.8056ZM94.9552 45.9243C95.172 45.114 95.6917 44.4372 96.4182 44.0178C96.9019 43.7385 97.4388 43.596 97.9825 43.596C98.2553 43.596 98.53 43.6319 98.8006 43.7044C113.983 47.7726 123.025 63.4336 118.957 78.6159C118.509 80.288 116.783 81.2835 115.112 80.8357C114.302 80.6186 113.624 80.0992 113.205 79.373C112.786 78.6468 112.674 77.8006 112.891 76.9906C116.063 65.1529 109.013 52.9417 97.1754 49.7694C95.5033 49.321 94.5071 47.5961 94.9552 45.9243Z" fill="#FECE03"/>
<path d="M106.983 13.1664C101.984 11.8268 96.8238 14.8048 95.4836 19.8057C94.8346 22.2281 95.1677 24.7586 96.4217 26.9303C97.6756 29.1024 99.7005 30.6558 102.123 31.3048C124.142 37.2051 137.256 59.9191 131.356 81.9382C130.707 84.3608 131.04 86.891 132.294 89.0628C133.548 91.2345 135.572 92.7882 137.995 93.4372C138.806 93.6544 139.62 93.7581 140.423 93.7581C144.568 93.7581 148.371 90.988 149.494 86.7982C158.074 54.7772 139.004 21.7463 106.983 13.1664ZM143.458 85.1802C143.01 86.8526 141.286 87.8485 139.612 87.4001C138.802 87.1829 138.126 86.6638 137.707 85.9376C137.706 85.9376 137.706 85.9376 137.706 85.9373C137.287 85.2111 137.176 84.3649 137.392 83.5549C144.184 58.2073 129.088 32.0597 103.74 25.2676C102.068 24.8195 101.072 23.0946 101.52 21.4228C101.896 20.0217 103.168 19.0955 104.554 19.0955C104.822 19.0955 105.094 19.1302 105.366 19.2026C134.057 26.8913 151.145 56.4884 143.458 85.1802Z" fill="#FECE03"/>
<path d="M117.284 109.017C113.137 101.834 103.921 99.3634 96.7376 103.511L84.0139 110.857C83.4152 111.203 82.7174 111.295 82.0475 111.116C81.3788 110.937 80.82 110.507 80.4741 109.908L51.8301 60.295C51.4842 59.6954 51.392 58.9973 51.5714 58.3286C51.7504 57.6599 52.1792 57.1011 52.7785 56.7552L65.5018 49.4094C72.6842 45.2624 75.1541 36.0451 71.0075 28.8627L58.6838 7.51738C54.5372 0.33466 45.3199 -2.13457 38.1371 2.01175L33.8146 4.50755C9.58065 18.4989 1.24799 49.5972 15.2391 73.8308L25.7666 92.0648C26.6294 93.5594 28.5402 94.0712 30.0351 93.2085C31.5297 92.3457 32.0419 90.4345 31.1788 88.9399L20.6516 70.706C10.6118 53.317 13.6838 31.8985 26.7756 17.9668L47.2316 53.3976C46.4461 54.3563 45.8648 55.4784 45.5345 56.7115C44.9233 58.9926 45.2371 61.375 46.4179 63.4201L75.0619 113.033C76.2425 115.078 78.1489 116.541 80.4304 117.152C81.6631 117.483 82.9255 117.541 84.1486 117.34L104.484 152.562C97.4066 154.239 89.9817 154.147 82.7587 152.212C71.2778 149.136 61.6818 141.773 55.739 131.479L45.2399 113.294C44.3768 111.799 42.466 111.287 40.9714 112.15C39.4768 113.013 38.9646 114.924 39.8277 116.419L50.3268 134.604C57.1042 146.343 68.0479 154.74 81.1413 158.249C85.5135 159.42 89.9501 160 94.3586 160C103.152 160 111.831 157.693 119.65 153.179L123.973 150.683C127.452 148.674 129.941 145.43 130.981 141.55C132.021 137.669 131.487 133.616 129.478 130.136L117.284 109.017ZM36.9391 9.92005L41.2617 7.42426C43.2953 6.24995 45.6648 5.93841 47.9328 6.54587C50.2012 7.15365 52.097 8.60857 53.2713 10.6422L65.595 31.9876C68.0186 36.1858 66.5752 41.5733 62.377 43.9972L52.3598 49.7806L31.4878 13.6295C33.1871 12.2796 35.0045 11.0372 36.9391 9.92005ZM124.943 139.933C124.336 142.201 122.881 144.097 120.847 145.271L116.525 147.767C114.601 148.878 112.618 149.836 110.591 150.639L89.8452 114.707L99.8627 108.924C104.061 106.5 109.448 107.944 111.872 112.141L124.066 133.262C125.24 135.295 125.552 137.664 124.943 139.933Z" fill="#374A5C"/>
<path d="M35.5364 99.5362C34.7115 99.5362 33.9084 99.8706 33.3241 100.452C32.7429 101.033 32.4116 101.836 32.4116 102.661C32.4116 103.483 32.7429 104.289 33.3241 104.87C33.9084 105.452 34.7146 105.786 35.5364 105.786C36.3583 105.786 37.1645 105.452 37.7457 104.87C38.3269 104.289 38.6613 103.483 38.6613 102.661C38.6613 101.836 38.3269 101.033 37.7457 100.452C37.1645 99.8703 36.3583 99.5362 35.5364 99.5362Z" fill="#FECE03"/>
</g>
<defs>
<clipPath id="clip0">
<rect width="160" height="160" fill="white"/>
</clipPath>
</defs>
</svg>
